X: 21
T: Italian Peasants
%R: march
B: Stewart "A Select Collection of Airs, Jigs, Marches and Reels", ca.1784, p.10,11 #21
F: http://imslp.org/wiki/A_Select_Collection_of_Airs,_Jigs,_Marches_and_Reels_%28Various%29
Z: 2017 John Chambers <jc:trillian.mit.edu>
M: C|
L: 1/8
K: G
GABc |\
d2d2 d2d2 | e2d2 g2d2 | e2d2 g2d2 | Tc2B2 GABc |\
d2d2 d2d2 | e2d2 g2d2 | c2BA GABc | d4 :|
|: defg |\
a2d2 b2d2 | Td2^c2 a2=c2 | Tc2B2 g2B2 | TB2A2 DEFG |\
A2D2 B2D2 | c2D2 d2D2 | g2fe dcBA | G4 :|
